X: 39
T:Jackie Colemans reel
R:Reel
O:Ireland
M:4/4
K:D
dB|\
AF (3FFF EFDE|F2AF BFAF|\
E2BE dEBE|ABde fedB|\
AF (3FFF EFDE|F2AF BFAF|
E2BE dEBE\
|1 ABde fddB :|2 ABde fdde|:\
fddc dfag|fd (3ddd fagf|
eA (3AAA eAfA|eA (3AAA efge|\
fddc dfag|fd (3ddd dfaf|\
g2 {a}gf gbag|faeg fdd2:|

